; generated by PrusaSlicer 2.0.0+ on 2019-09-04 at 09:12:14

; 

; external perimeters extrusion width = 0.45mm
; perimeters extrusion width = 0.45mm
; infill extrusion width = 0.45mm
; solid infill extrusion width = 0.45mm
; top infill extrusion width = 0.40mm
; first layer extrusion width = 0.42mm

M73 P0 R11
M73 Q0 S11
M201 X1000 Y1000 Z1000 E5000 ; sets maximum accelerations, mm/sec^2
M203 X200 Y200 Z12 E120 ; sets maximum feedrates, mm/sec
M204 P1250 R1250 T1250 ; sets acceleration (P, T) and retract acceleration (R), mm/sec^2
M205 X8.00 Y8.00 Z0.40 E1.50 ; sets the jerk limits, mm/sec
M205 S0 T0 ; sets the minimum extruding and travel feed rate, mm/sec
M107
M115 U3.7.2 ; tell printer latest fw version
G90 ; use absolute coordinates
M83 ; extruder relative mode
M104 S215 ; set extruder temp
M140 S60 ; set bed temp
Tx
M190 S60 ; wait for bed temp
M109 S215 ; wait for extruder temp
G28 W ; home all without mesh bed level
G80 ; mesh bed leveling

G21 ; set units to millimeters

;go outside print area
G1 Y-3.0 F1000.0
G1 Z0.4 F1000.0
; select extruder
Tc
; purge line
G1 X55.0 F2000.0
G1 Z0.3 F1000.0
G92 E0.0
G1 X240.0 E25.0 F2200.0
M73 Q1 S11
M73 P1 R11
G1 Y-2.0 F1000.0
G1 X55.0 E25 F1400.0
G1 Z0.20 F1000.0
G1 X5.0 E4.0 F1000.0

M221 S95
G92 E0.0
M900 K30 ; Filament gcode
G21 ; set units to millimeters
G90 ; use absolute coordinates
M83 ; use relative distances for extrusion
;BEFORE_LAYER_CHANGE
G92 E0.0
;0.2


G1 E-0.80000 F2100.00000
G1 Z0.600 F10800.000
;AFTER_LAYER_CHANGE
;0.2
G1 X112.615 Y94.053
G1 Z0.200
G1 E0.80000 F2100.00000
M204 S1000
G1 F1200
G1 X113.080 Y93.299 E0.02778
G1 X113.460 Y92.948 E0.01623
G1 X113.900 Y92.682 E0.01610
G1 X114.387 Y92.509 E0.01623
G1 X114.899 Y92.436 E0.01623
G1 X135.004 Y92.434 E0.63036
G1 X135.936 Y92.611 E0.02973
G1 X136.742 Y93.117 E0.02985
G1 X137.309 Y93.882 E0.02985
G1 X137.558 Y94.797 E0.02973
G1 X137.565 Y115.075 E0.63582
G1 X137.385 Y115.947 E0.02790
G1 X136.920 Y116.701 E0.02778
G1 X136.527 Y117.061 E0.01672
G1 X136.065 Y117.334 E0.01684
G1 X135.559 Y117.504 E0.01672
G1 X135.025 Y117.565 E0.01684
G1 X114.925 Y117.565 E0.63024
G1 X114.053 Y117.385 E0.02790
G1 X113.299 Y116.920 E0.02778
G1 X112.939 Y116.527 E0.01672
G1 X112.666 Y116.065 E0.01684
G1 X112.496 Y115.559 E0.01672
G1 X112.435 Y115.025 E0.01684
G1 X112.435 Y94.925 E0.63024
G1 X112.603 Y94.112 E0.02602
G1 F8640
G1 X113.080 Y93.299 E-0.21763
G1 X113.460 Y92.948 E-0.11949
G1 X113.900 Y92.682 E-0.11859
G1 X114.387 Y92.509 E-0.11949
G1 X114.899 Y92.436 E-0.11949
G1 X115.182 Y92.436 E-0.06530
G1 E-0.04000 F2100.00000
G1 Z0.800 F10800.000
G1 X114.077 Y93.015
G1 Z0.200
G1 E0.80000 F2100.00000
G1 F1200
G1 X114.925 Y92.813 E0.02732
G1 X135.004 Y92.811 E0.62956
G1 X135.803 Y92.964 E0.02552
G1 X136.494 Y93.401 E0.02563
G1 X136.977 Y94.061 E0.02563
G1 X137.183 Y94.848 E0.02552
G1 X137.188 Y115.058 E0.63368
G1 X137.032 Y115.813 E0.02417
G1 X136.626 Y116.465 E0.02405
G1 X135.899 Y116.995 E0.02822
G1 X135.017 Y117.188 E0.02833
G1 X114.942 Y117.188 E0.62945
G1 X114.187 Y117.032 E0.02417
G1 X113.535 Y116.626 E0.02405
G1 X113.005 Y115.899 E0.02822
G1 X112.812 Y115.017 E0.02833
G1 X112.812 Y94.942 E0.62945
G1 X112.968 Y94.187 E0.02417
G1 X113.374 Y93.535 E0.02405
G1 X114.029 Y93.051 E0.02555
G1 F8640
G1 X114.925 Y92.813 E-0.21401
G1 X117.289 Y92.813 E-0.54599
G1 E-0.04000 F2100.00000
G1 Z0.800 F10800.000
G1 X118.163 Y98.163
G1 Z0.200
G1 E0.80000 F2100.00000
G1 F1200
G1 X122.337 Y98.163 E0.13088
G1 X122.337 Y111.837 E0.42874
G1 X118.163 Y111.837 E0.13088
G1 X118.163 Y98.223 E0.42686
G1 X118.540 Y98.540 F10800.000
G1 F1200
G1 X121.960 Y98.540 E0.10723
G1 X121.960 Y111.460 E0.40510
G1 X118.540 Y111.460 E0.10723
G1 X118.540 Y98.600 E0.40322
G1 X118.506 Y98.141 F10800.000
G1 F8640
G1 X121.831 Y98.542 E-0.76000
G1 E-0.04000 F2100.00000
G1 Z0.800 F10800.000
G1 X127.663 Y98.163
G1 Z0.200
G1 E0.80000 F2100.00000
G1 F1200
G1 X131.837 Y98.163 E0.13088
G1 X131.837 Y111.837 E0.42874
G1 X127.663 Y111.837 E0.13088
G1 X127.663 Y98.223 E0.42686
G1 X128.040 Y98.540 F10800.000
G1 F1200
G1 X131.460 Y98.540 E0.10723
G1 X131.460 Y111.460 E0.40510
G1 X128.040 Y111.460 E0.10723
G1 X128.040 Y98.600 E0.40322
G1 X128.006 Y98.141 F10800.000
G1 F8640
G1 X131.331 Y98.542 E-0.76000
G1 E-0.04000 F2100.00000
G1 Z0.800 F10800.000
G1 X134.413 Y95.587
G1 Z0.200
G1 E0.80000 F2100.00000
G1 F1200
G1 X134.413 Y114.413 E0.59027
G1 X115.587 Y114.413 E0.59027
G1 X115.587 Y95.587 E0.59027
G1 X134.353 Y95.587 E0.58839
G1 X134.790 Y95.210 F10800.000
G1 F1200
G1 X134.790 Y114.790 E0.61392
G1 X115.210 Y114.790 E0.61392
G1 X115.210 Y95.210 E0.61392
G1 X134.730 Y95.210 E0.61204
G1 X134.686 Y95.596 F10800.000
G1 F8640
G1 X134.740 Y98.501 E-0.76000
G1 E-0.04000 F2100.00000
G1 Z0.800 F10800.000
G1 X134.300 Y96.473
G1 Z0.200
G1 E0.80000 F2100.00000
G1 F1200
G1 X133.697 Y95.870 E0.02709
G1 X133.157 Y95.870 E0.01716
G1 X134.130 Y96.843 E0.04373
G1 X134.130 Y97.384 E0.01716
G1 X132.616 Y95.870 E0.06800
G1 X132.076 Y95.870 E0.01716
G1 X134.130 Y97.924 E0.09226
G1 X134.130 Y98.464 E0.01716
G1 X131.536 Y95.870 E0.11653
G1 X130.996 Y95.870 E0.01716
G1 X134.130 Y99.004 E0.14079
G1 X134.130 Y99.544 E0.01716
G1 X130.456 Y95.870 E0.16506
G1 X129.915 Y95.870 E0.01716
G1 X134.130 Y100.085 E0.18932
G1 X134.130 Y100.625 E0.01716
G1 X132.120 Y98.615 E0.09030
G1 X132.120 Y99.155 E0.01716
G1 X134.130 Y101.165 E0.09030
G1 X134.130 Y101.705 E0.01716
G1 X132.120 Y99.695 E0.09030
G1 X132.120 Y100.235 E0.01716
G1 X134.130 Y102.246 E0.09030
G1 X134.130 Y102.786 E0.01716
G1 X132.120 Y100.775 E0.09030
G1 X132.120 Y101.316 E0.01716
G1 X134.130 Y103.326 E0.09030
G1 X134.130 Y103.866 E0.01716
G1 X132.120 Y101.856 E0.09030
G1 X132.120 Y102.396 E0.01716
G1 X134.130 Y104.406 E0.09030
G1 X134.130 Y104.947 E0.01716
G1 X132.120 Y102.936 E0.09030
G1 X132.120 Y103.477 E0.01716
G1 X134.130 Y105.487 E0.09030
G1 X134.130 Y106.027 E0.01716
G1 X132.120 Y104.017 E0.09030
G1 X132.120 Y104.557 E0.01716
G1 X134.130 Y106.567 E0.09030
G1 X134.130 Y107.107 E0.01716
G1 X132.120 Y105.097 E0.09030
G1 X132.120 Y105.637 E0.01716
G1 X134.130 Y107.648 E0.09030
G1 X134.130 Y108.188 E0.01716
G1 X132.120 Y106.178 E0.09030
G1 X132.120 Y106.718 E0.01716
G1 X134.130 Y108.728 E0.09030
G1 X134.130 Y109.268 E0.01716
G1 X132.120 Y107.258 E0.09030
G1 X132.120 Y107.798 E0.01716
G1 X134.130 Y109.808 E0.09030
G1 X134.130 Y110.349 E0.01716
G1 X132.120 Y108.338 E0.09030
G1 X132.120 Y108.879 E0.01716
G1 X134.130 Y110.889 E0.09030
G1 X134.130 Y111.429 E0.01716
G1 X132.120 Y109.419 E0.09030
G1 X132.120 Y109.959 E0.01716
G1 X134.130 Y111.969 E0.09030
G1 X134.130 Y112.510 E0.01716
G1 X132.120 Y110.499 E0.09030
G1 X132.120 Y111.040 E0.01716
G1 X134.130 Y113.050 E0.09030
G1 X134.130 Y113.590 E0.01716
G1 X132.120 Y111.580 E0.09030
G1 X132.120 Y112.120 E0.01716
G1 X134.130 Y114.130 E0.09030
G1 X133.590 Y114.130 E0.01716
G1 X131.580 Y112.120 E0.09030
G1 X131.039 Y112.120 E0.01716
G1 X133.050 Y114.130 E0.09030
G1 X132.509 Y114.130 E0.01716
G1 X130.499 Y112.120 E0.09030
G1 X129.959 Y112.120 E0.01716
G1 X131.969 Y114.130 E0.09030
G1 X131.429 Y114.130 E0.01716
G1 X129.419 Y112.120 E0.09030
G1 X128.879 Y112.120 E0.01716
G1 X130.889 Y114.130 E0.09030
G1 X130.349 Y114.130 E0.01716
G1 X128.338 Y112.120 E0.09030
G1 X127.798 Y112.120 E0.01716
G1 X129.808 Y114.130 E0.09030
G1 X129.268 Y114.130 E0.01716
G1 X122.620 Y107.482 E0.29863
G1 X122.620 Y106.942 E0.01716
G1 X127.380 Y111.702 E0.21383
G1 X127.380 Y111.162 E0.01716
G1 X122.620 Y106.401 E0.21383
G1 X122.620 Y105.861 E0.01716
G1 X127.380 Y110.621 E0.21383
G1 X127.380 Y110.081 E0.01716
G1 X122.620 Y105.321 E0.21383
G1 X122.620 Y104.781 E0.01716
G1 X127.380 Y109.541 E0.21383
G1 X127.380 Y109.001 E0.01716
G1 X122.620 Y104.241 E0.21383
G1 X122.620 Y103.700 E0.01716
G1 X127.380 Y108.461 E0.21383
G1 X127.380 Y107.920 E0.01716
G1 X122.620 Y103.160 E0.21383
G1 X122.620 Y102.620 E0.01716
G1 X127.380 Y107.380 E0.21383
G1 X127.380 Y106.840 E0.01716
G1 X122.620 Y102.080 E0.21383
G1 X122.620 Y101.540 E0.01716
G1 X127.380 Y106.300 E0.21383
G1 X127.380 Y105.760 E0.01716
G1 X122.620 Y100.999 E0.21383
G1 X122.620 Y100.459 E0.01716
G1 X127.380 Y105.219 E0.21383
G1 X127.380 Y104.679 E0.01716
G1 X122.620 Y99.919 E0.21383
G1 X122.620 Y99.379 E0.01716
G1 X127.380 Y104.139 E0.21383
G1 X127.380 Y103.599 E0.01716
G1 X122.620 Y98.838 E0.21383
G1 X122.620 Y98.298 E0.01716
G1 X127.380 Y103.058 E0.21383
G1 X127.380 Y102.518 E0.01716
G1 X120.732 Y95.870 E0.29864
G1 X121.272 Y95.870 E0.01716
G1 X127.380 Y101.978 E0.27437
G1 X127.380 Y101.438 E0.01716
G1 X121.812 Y95.870 E0.25011
G1 X122.352 Y95.870 E0.01716
G1 X127.380 Y100.898 E0.22584
G1 X127.380 Y100.357 E0.01716
G1 X122.893 Y95.870 E0.20158
G1 X123.433 Y95.870 E0.01716
G1 X127.380 Y99.817 E0.17731
G1 X127.380 Y99.277 E0.01716
G1 X123.973 Y95.870 E0.15304
G1 X124.513 Y95.870 E0.01716
G1 X127.380 Y98.737 E0.12878
G1 X127.380 Y98.197 E0.01716
G1 X125.053 Y95.870 E0.10451
G1 X125.594 Y95.870 E0.01716
G1 X127.604 Y97.880 E0.09030
G1 X128.144 Y97.880 E0.01716
G1 X126.134 Y95.870 E0.09030
G1 X126.674 Y95.870 E0.01716
G1 X128.684 Y97.880 E0.09030
G1 X129.225 Y97.880 E0.01716
G1 X127.214 Y95.870 E0.09030
G1 X127.754 Y95.870 E0.01716
G1 X129.765 Y97.880 E0.09030
G1 X130.305 Y97.880 E0.01716
G1 X128.295 Y95.870 E0.09030
G1 X128.835 Y95.870 E0.01716
G1 X130.845 Y97.880 E0.09030
G1 X131.385 Y97.880 E0.01716
G1 X129.205 Y95.700 E0.09792
G1 F8640
G1 X131.385 Y97.880 E-0.71185
G1 X131.177 Y97.880 E-0.04815
G1 E-0.04000 F2100.00000
G1 Z0.800 F10800.000
G1 X122.371 Y98.050
G1 Z0.200
G1 E0.80000 F2100.00000
G1 F1200
G1 X120.192 Y95.870 E0.09792
G1 X119.651 Y95.870 E0.01716
G1 X121.662 Y97.880 E0.09030
G1 X121.121 Y97.880 E0.01716
G1 X119.111 Y95.870 E0.09030
G1 X118.571 Y95.870 E0.01716
G1 X120.581 Y97.880 E0.09030
G1 X120.041 Y97.880 E0.01716
G1 X118.031 Y95.870 E0.09030
G1 X117.490 Y95.870 E0.01716
G1 X119.501 Y97.880 E0.09030
G1 X118.960 Y97.880 E0.01716
G1 X116.950 Y95.870 E0.09030
G1 X116.410 Y95.870 E0.01716
G1 X118.420 Y97.880 E0.09030
G1 X117.880 Y97.880 E0.01716
M73 Q10 S10
G1 X115.870 Y95.870 E0.09030
G1 X115.870 Y96.410 E0.01716
G1 X117.880 Y98.420 E0.09030
M73 P10 R10
G1 X117.880 Y98.961 E0.01716
G1 X115.870 Y96.950 E0.09030
G1 X115.870 Y97.491 E0.01716
G1 X117.880 Y99.501 E0.09030
G1 X117.880 Y100.041 E0.01716
G1 X115.870 Y98.031 E0.09030
G1 X115.870 Y98.571 E0.01716
G1 X117.880 Y100.581 E0.09030
G1 X117.880 Y101.121 E0.01716
G1 X115.870 Y99.111 E0.09030
G1 X115.870 Y99.651 E0.01716
G1 X117.880 Y101.662 E0.09030
G1 X117.880 Y102.202 E0.01716
G1 X115.870 Y100.192 E0.09030
G1 X115.870 Y100.732 E0.01716
G1 X117.880 Y102.742 E0.09030
G1 X117.880 Y103.282 E0.01716
G1 X115.870 Y101.272 E0.09030
G1 X115.870 Y101.812 E0.01716
G1 X117.880 Y103.823 E0.09030
G1 X117.880 Y104.363 E0.01716
G1 X115.870 Y102.352 E0.09030
G1 X115.870 Y102.893 E0.01716
G1 X117.880 Y104.903 E0.09030
G1 X117.880 Y105.443 E0.01716
G1 X115.870 Y103.433 E0.09030
G1 X115.870 Y103.973 E0.01716
G1 X117.880 Y105.983 E0.09030
G1 X117.880 Y106.524 E0.01716
G1 X115.870 Y104.513 E0.09030
G1 X115.870 Y105.054 E0.01716
G1 X117.880 Y107.064 E0.09030
G1 X117.880 Y107.604 E0.01716
G1 X115.870 Y105.594 E0.09030
G1 X115.870 Y106.134 E0.01716
G1 X117.880 Y108.144 E0.09030
G1 X117.880 Y108.684 E0.01716
G1 X115.870 Y106.674 E0.09030
G1 X115.870 Y107.214 E0.01716
G1 X117.880 Y109.225 E0.09030
G1 X117.880 Y109.765 E0.01716
G1 X115.870 Y107.755 E0.09030
G1 X115.870 Y108.295 E0.01716
G1 X117.880 Y110.305 E0.09030
G1 X117.880 Y110.845 E0.01716
G1 X115.870 Y108.835 E0.09030
G1 X115.870 Y109.375 E0.01716
G1 X118.050 Y111.555 E0.09792
G1 F8640
G1 X115.870 Y109.375 E-0.71186
G1 X115.870 Y109.167 E-0.04815
G1 E-0.04000 F2100.00000
G1 Z0.800 F10800.000
G1 X116.473 Y114.300
G1 Z0.200
G1 E0.80000 F2100.00000
G1 F1200
G1 X115.870 Y113.697 E0.02708
G1 X115.870 Y113.157 E0.01716
G1 X116.843 Y114.130 E0.04372
G1 X117.383 Y114.130 E0.01716
G1 X115.870 Y112.617 E0.06799
G1 X115.870 Y112.076 E0.01716
G1 X117.924 Y114.130 E0.09226
G1 X118.464 Y114.130 E0.01716
G1 X115.870 Y111.536 E0.11652
G1 X115.870 Y110.996 E0.01716
G1 X119.004 Y114.130 E0.14079
G1 X119.544 Y114.130 E0.01716
G1 X115.870 Y110.456 E0.16505
G1 X115.870 Y109.915 E0.01716
G1 X120.085 Y114.130 E0.18932
G1 X120.625 Y114.130 E0.01716
G1 X118.614 Y112.120 E0.09030
G1 X119.155 Y112.120 E0.01716
G1 X121.165 Y114.130 E0.09030
G1 X121.705 Y114.130 E0.01716
G1 X119.695 Y112.120 E0.09030
G1 X120.235 Y112.120 E0.01716
G1 X122.245 Y114.130 E0.09030
G1 X122.786 Y114.130 E0.01716
G1 X120.775 Y112.120 E0.09030
G1 X121.316 Y112.120 E0.01716
G1 X123.326 Y114.130 E0.09030
G1 X123.866 Y114.130 E0.01716
G1 X121.856 Y112.120 E0.09030
G1 X122.396 Y112.120 E0.01716
G1 X124.406 Y114.130 E0.09030
G1 X124.946 Y114.130 E0.01716
G1 X122.620 Y111.804 E0.10451
G1 X122.620 Y111.263 E0.01716
G1 X125.487 Y114.130 E0.12877
G1 X126.027 Y114.130 E0.01716
G1 X122.620 Y110.723 E0.15304
G1 X122.620 Y110.183 E0.01716
G1 X126.567 Y114.130 E0.17731
G1 X127.107 Y114.130 E0.01716
G1 X122.620 Y109.643 E0.20157
G1 X122.620 Y109.102 E0.01716
G1 X127.648 Y114.130 E0.22584
G1 X128.188 Y114.130 E0.01716
G1 X122.620 Y108.562 E0.25010
G1 X122.620 Y108.022 E0.01716
G1 X128.898 Y114.300 E0.28199
M106 S255
;BEFORE_LAYER_CHANGE
G92 E0.0
;0.35


G1 F8640
G1 X126.570 Y111.972 E-0.76000
G1 E-0.04000 F2100.00000
G1 Z0.800 F10800.000
;AFTER_LAYER_CHANGE
;0.35
G1 X136.742 Y93.117
G1 Z0.350
G1 E0.80000 F2100.00000
G1 F3000
G1 X137.309 Y93.882 E0.02303
G1 X137.558 Y94.797 E0.02293
G1 X137.565 Y115.075 E0.49043
G1 X137.385 Y115.947 E0.02152
G1 X136.920 Y116.701 E0.02143
G1 X136.527 Y117.061 E0.01290
G1 X136.065 Y117.334 E0.01299
G1 X135.559 Y117.504 E0.01290
G1 X135.025 Y117.565 E0.01299
G1 X114.925 Y117.565 E0.48613
G1 X114.053 Y117.385 E0.02152
G1 X113.299 Y116.920 E0.02143
G1 X112.939 Y116.527 E0.01290
G1 X112.666 Y116.065 E0.01299
G1 X112.496 Y115.559 E0.01290
G1 X112.435 Y115.025 E0.01299
G1 X112.435 Y94.925 E0.48613
G1 X112.615 Y94.053 E0.02152
G1 X113.080 Y93.299 E0.02143
G1 X113.460 Y92.948 E0.01252
G1 X113.900 Y92.682 E0.01242
G1 X114.387 Y92.509 E0.01252
G1 X114.899 Y92.436 E0.01252
G1 X135.004 Y92.434 E0.48623
G1 X135.936 Y92.611 E0.02293
G1 X136.691 Y93.085 E0.02158
G1 F8640
G1 X137.309 Y93.882 E-0.23280
G1 X137.558 Y94.797 E-0.21894
G1 X137.558 Y96.132 E-0.30826
G1 E-0.04000 F2100.00000
G1 Z0.950 F10800.000
G1 X122.393 Y98.107
G1 Z0.350
G1 E0.80000 F2100.00000
M204 S800
G1 F1500
G1 X122.393 Y111.893 E0.35919
G1 X118.107 Y111.893 E0.11167
G1 X118.107 Y98.107 E0.35919
G1 X122.333 Y98.107 E0.11010
M204 S1000
G1 X121.975 Y98.525 F10800.000
M204 S800
G1 F1500
G1 X121.975 Y111.475 E0.33742
G1 X118.525 Y111.475 E0.08989
G1 X118.525 Y98.525 E0.33742
G1 X121.915 Y98.525 E0.08833
M204 S1000
G1 X122.337 Y98.356 F10800.000
G1 F8640
G1 X121.930 Y101.816 E-0.76000
G1 E-0.04000 F2100.00000
G1 Z0.950 F10800.000
G1 X127.607 Y98.107
G1 Z0.350
G1 E0.80000 F2100.00000
M204 S800
G1 F1500
G1 X131.893 Y98.107 E0.11167
G1 X131.893 Y111.893 E0.35919
G1 X127.607 Y111.893 E0.11167
G1 X127.607 Y98.167 E0.35763
M204 S1000
G1 X128.025 Y98.525 F10800.000
M204 S800
G1 F1500
G1 X131.475 Y98.525 E0.08989
G1 X131.475 Y111.475 E0.33742
G1 X128.025 Y111.475 E0.08989
G1 X128.025 Y98.585 E0.33586
M204 S1000
G1 X127.990 Y98.127 F10800.000
G1 F8640
G1 X131.316 Y98.528 E-0.76000
G1 E-0.04000 F2100.00000
G1 Z0.950 F10800.000
G1 X134.357 Y95.643
G1 Z0.350
G1 E0.80000 F2100.00000
M204 S800
G1 F2700
G1 X134.357 Y114.357 E0.48762
G1 X115.643 Y114.357 E0.48762
G1 X115.643 Y95.643 E0.48762
G1 X134.297 Y95.643 E0.48605
M204 S1000
G1 X134.775 Y95.225 F10800.000
M204 S800
G1 F1500
G1 X134.775 Y114.775 E0.50939
G1 X115.225 Y114.775 E0.50939
G1 X115.225 Y95.225 E0.50939
G1 X134.715 Y95.225 E0.50783
M204 S1000
G1 X134.671 Y95.611 F10800.000
G1 F8640
G1 X134.725 Y98.516 E-0.76000
G1 E-0.04000 F2100.00000
G1 Z0.950 F10800.000
G1 X122.518 Y103.005
G1 Z0.350
G1 E0.80000 F2100.00000
M204 S1250
G1 F4579
G1 X127.294 Y98.229 E0.17779
G1 X127.294 Y98.826 E0.01571
G1 X122.706 Y103.414 E0.17079
G1 X122.706 Y104.011 E0.01571
G1 X127.294 Y99.423 E0.17079
G1 X127.294 Y100.020 E0.01571
